X: 5
T: Missa L'homme arm\'e / Agnus Dei
N: Derived from Tin1001e-Missa_Lhomme_arme-Agnus.krn
C: Johannes Tinctoris
%%abc-version 2.0
%%abcx-abcm2ps-target-version 5.9.1 (29 Sep 2008)
%%abc-creator hum2abc beta
%%abcx-conversion-date 2019/02/17 07:34:55
%%abc-edited-by Jesse Rodin
%%abc-edited-by Melin
%%abcx-initial-encoding-date 2014/06/10/
%%humdrum-veritas 2945236051
%%humdrum-veritas-data 1064855673
%%linebreak <none>
%%barnumbers 0
L: 1/4
M: 3/1
Q: 1/2=120
%%staves [1 2 3 4]
V: 1 clef=treble
V: 2 clef=treble-8
V: 3 clef=treble-8
V: 4 clef=bass
K: F
[V:1] G12 | 
[V:2] z12 :
[V:3] G6c4B2 | 
[V:4] G,,4C,3D,E,F,G,2 | 
[V:1] c6B2A4 | 
[V:2] x12 | 
[V:3] A3G/F/EDG2A2F3/E/ | 
[V:4] F,3E,/D,/C,2G,,2D,4 | 
[V:1] G3FE2D4G2 | 
[V:2] z12 :
[V:3] G2c4B2G4 | 
[V:4] E,2C,4G,3F,E,2 | 
[V:1] F2A3GG4^F2 | 
[V:2] x12 | 
[V:3] d4c2B2A4 | 
[V:4] D,3E,F,2G,2D,4 | 
[V:1] G4z2G4A2 | 
[V:2] z12 :
[V:3] G3c2defe2c2 | 
[V:4] G,,2C,3B,,C,D,C,2A,,2 | 
[V:1] =B12 | 
[V:2] G12 | 
[V:3] d12 | 
[V:4] G,,12 | 
[V:1] c2A4GFE2A2- | 
[V:2] c12 :
[V:3] c3A2Bc4A2 | 
[V:4] A,,2F,,2F,3G,A,2F,2 | 
[V:1] A2G2A4z2A2 | 
[V:2] B4A8 | 
[V:3] z4(3:2:5F4G2A2F3E | 
[V:4] G,4D,8 | 
[V:1] B2G3FD3EFG | 
[V:2] G8d4 :
[V:3] G2B3AB3cd2- | 
[V:4] G,,4z2G,3F,D,2- | 
[V:1] A2F2G2(3:2:4F E DE2^C2(3:2:1=B, | 
[V:2] d4G8 | 
[V:3] dcA2z2G4E2 | 
[V:4] D,E,F,D,E,8 | 
[V:1] [M:3/1]D4z2F3GA2- | 
[V:2] z4d4d4 :
[V:3] F2D2F3GA4 | 
[V:4] D,2B,,3C,D,E,F,2D,2- | 
[V:1] A2B2c3A2G/F/E2 | 
[V:2] d4c8 | 
[V:3] z2G2E3/F/GA2Bc2 | 
[V:4] D,E,/F,/G,2C,3F,2E,/D,/C,2 | 
[V:1] D2G2F3A3/G/A^FE | 
[V:2] B4A8 :
[V:3] d12- | 
[V:4] G,4D,8 | 
[V:1] G8D2E2- | 
[V:2] G12 | 
[V:3] d4B6c2 | 
[V:4] G,,4z2G,,4C,2- | 
[V:1] EDCB,/A,/G,2B,2A,4 | 
[V:2] z12 :
[V:3] G4z2G2D4 | 
[V:4] C,B,,C,D,E,3/F,/G,3^F,F,E, | 
[V:1] G,2zC2DEFG2D2- | 
[V:2] g12 | 
[V:3] d2e3dcB/A/G2B2 | 
[V:4] G,2C,2zG,,C,D,E,3/F,/G,2 | 
[V:1] DC/B,/C2D4z4 | 
[V:2] f4g4e4 :
[V:3] A4G2d3^c/=B/^c2 | 
[V:4] z2A,2B,2G,2A,4 | 
[V:1] A,2B,2A,2D3EFG | 
[V:2] d12 | 
[V:3] d3ef2df2edc/B/ | 
[V:4] D,2G,2F,3D,2C,D,E, | 
[V:1] A2B3AA4G2 | 
[V:2] d12- :
[V:3] A2G3FA2B4 | 
[V:4] F,2G,3D,F,2G,4 | 
[V:1] F3/G/AB2AG3^F/E/F2 | 
[V:2] d12 | 
[V:3] A2d3cB2A4 | 
[V:4] D,3G,,2A,,B,,C,D,4 | 
[V:1] G12 ||  
[V:2] d12 ||  
[V:3] G12 ||  
[V:4] G,,12 ||  
[V:1]  [K:F] [K:clef=treble][M:2/1]G8 | 
[V:2]  [K:F] [K:clef=treble-8][M:2/1]z8 | 
[V:3]  [K:F] [K:clef=treble-8][M:2/1]c8 | 
[V:4]  [K:F] [K:clef=bass][M:2/1]z8 | 
[V:1] E6DC | 
[V:2] g8- | 
[V:3] c6BA | 
[V:4] z8 | 
[V:1] E2D4CD | 
[V:2] g8 | 
[V:3] c2B4AB | 
[V:4] z8 | 
[V:1] E6F2 | 
[V:2] g6fe | 
[V:3] c6d2 | 
[V:4] z8 | 
[V:1] D2CB,C4 | 
[V:2] g2f4ef | 
[V:3] B2AGA4 | 
[V:4] z8 | 
[V:1] D4G,4 | 
[V:2] g4z4 | 
[V:3] G3AB4 | 
[V:4] z8 | 
[V:1] z4G4 | 
[V:2] g4c4 | 
[V:3] c4z4 | 
[V:4] z8 | 
[V:1] A2c4B2 | 
[V:2] A6B2 | 
[V:3] c6d2 | 
[V:4] z8 | 
[V:1] G2A3GFE | 
[V:2] c4d2f2- | 
[V:3] e4f2d2- | 
[V:4] z8 | 
[V:1] D2F3EDC | 
[V:2] fedcB2d2- | 
[V:3] dcBAd2B2- | 
[V:4] z8 | 
[V:1] B,2B3A/G/A2- | 
[V:2] dcBAG2c2- | 
[V:3] BAG4F2- | 
[V:4] z8 | 
[V:1] AGG4^F2 | 
[V:2] c2B2A4 | 
[V:3] F2G2D4 | 
[V:4] z8 | 
[V:1] G4z4 | 
[V:2] G8 | 
[V:3] z4d4 | 
[V:4] z8 | 
[V:1] C4G4 | 
[V:2] z4c4 | 
[V:3] e8 | 
[V:4] z8 | 
[V:1] z4G,4 | 
[V:2] g4z4 | 
[V:3] e4d3c | 
[V:4] z8 | 
[V:1] D4B,2D2- | 
[V:2] G4d4 | 
[V:3] B2d3ef2 | 
[V:4] z8 | 
[V:1] DEF4B,2 | 
[V:2] B2d3ef2 | 
[V:3] d4B2B2- | 
[V:4] z8 | 
[V:1] F2G2F2B2 | 
[V:2] B3cd4 | 
[V:3] BAG2B4 | 
[V:4] z8 | 
[V:1] c2B4A2 | 
[V:2] e2d2c4 | 
[V:3] z2B2F4 | 
[V:4] z8 | 
[V:1] B4z4 | 
[V:2] B4G4 | 
[V:3] G2d3cBA | 
[V:4] z8 | 
[V:1] B6A2- | 
[V:2] z8 | 
[V:3] G2d4c2- | 
[V:4] z8 | 
[V:1] AGG4^F2 | 
[V:2] z8 | 
[V:3] cBG2A4 | 
[V:4] z8 | 
[V:1] G2D4C2- | 
[V:2] B6A2- | 
[V:3] G4z4 | 
[V:4] z8 | 
[V:1] CDB,2A,4 | 
[V:2] AGG4^F2 | 
[V:3] z8 | 
[V:4] z8 | 
[V:1] G,4z4 | 
[V:2] G2d4c2- | 
[V:3] B6A2- | 
[V:4] z8 | 
[V:1] z8 | 
[V:2] cdB2A4 | 
[V:3] AGG4^F2 | 
[V:4] z8 | 
[V:1] z8 | 
[V:2] G4z2d2- | 
[V:3] G4D4 | 
[V:4] z8 | 
[V:1] z8 | 
[V:2] d2e2f2g2- | 
[V:3] z2G2A2B2 | 
[V:4] z8 | 
[V:1] z8 | 
[V:2] g2c4d2 | 
[V:3] c4F4 | 
[V:4] z8 | 
[V:1] z8 | 
[V:2] e2f4B2- | 
[V:3] G2A2B2G2- | 
[V:4] z8 | 
[V:1] z8 | 
[V:2] B2c2d4- | 
[V:3] GFE2D2EF | 
[V:4] z8 | 
[V:1] z8 | 
[V:2] d2efg3f | 
[V:3] G3FEDE2- | 
[V:4] z8 | 
[V:1] z8 | 
[V:2] ede4d2- | 
[V:3] E2C2G4 | 
[V:4] z8 | 
[V:1] z8 | 
[V:2] dcc4=B2 | 
[V:3] F2E2D4 | 
[V:4] z8 | 
[V:1] G8- | 
[V:2] c8 | 
[V:3] C8- | 
[V:4] z8 | 
[V:1] G4E4- | 
[V:2] z4g4- | 
[V:3] C4z4 | 
[V:4] z8 | 
[V:1] E2C2C4 | 
[V:2] g2e4c2 | 
[V:3] z8 | 
[V:4] z8 | 
[V:1] z2G4F2 | 
[V:2] c4z2d2 | 
[V:3] z8 | 
[V:4] z8 | 
[V:1] G2B2A2G2- | 
[V:2] e2g2f2e2 | 
[V:3] z8 | 
[V:4] z8 | 
[V:1] G2c4B2 | 
[V:2] c4d4 | 
[V:3] z8 | 
[V:4] z8 | 
[V:1] c4A2B2- | 
[V:2] c2f3ed2- | 
[V:3] z8 | 
[V:4] z8 | 
[V:1] B2G2A4 | 
[V:2] d2g4^f2 | 
[V:3] z8 | 
[V:4] z8 | 
[V:1] G4z2C2- | 
[V:2] g4f2e2- | 
[V:3] z8 | 
[V:4] z8 | 
[V:1] C2G4F2 | 
[V:2] edc2B4 | 
[V:3] z8 | 
[V:4] z8 | 
[V:1] E2DCB,2D2- | 
[V:2] c2Bcd2G2- | 
[V:3] z8 | 
[V:4] z8 | 
[V:1] DCB,A,G,3A, | 
[V:2] GABcd2ef | 
[V:3] z8 | 
[V:4] z8 | 
[V:1] G,2C4=B,2 | 
[V:2] g2e2d4 | 
[V:3] z8 | 
[V:4] z8 | 
[V:1] C4z4 | 
[V:2] z2c2e3f | 
[V:3] z4C3D | 
[V:4] z8 | 
[V:1] C3DE2F2 | 
[V:2] g2a2g2c2 | 
[V:3] E2F2G2A2 | 
[V:4] z8 | 
[V:1] G2A2G2c2- | 
[V:2] d2e2c3B | 
[V:3] G2c3BAG | 
[V:4] z8 | 
[V:1] cBAGB2A2- | 
[V:2] AGd3Bc2 | 
[V:3] F3EG2A2 | 
[V:4] z8 | 
[V:1] AGG4^F2 | 
[V:2] d2G2A4 | 
[V:3] D2E2D4 | 
[V:4] z8 | 
[V:1] G8 ||  
[V:2] G8 ||  
[V:3] G8 & d8 ||  
[V:4] z8 ||  
[V:1]  [K:F] [K:clef=treble][M:2/1]G8F4 | 
[V:2]  [K:F] [K:clef=treble-8][M:2/1]z6x6 :
[V:3]  [K:F] [K:clef=treble-8][M:2/1]B6AGA4 | 
[V:4]  [K:F] [K:clef=bass][M:2/1]G,6F,E,D,4 | 
[V:1] G6F2E2D2 | 
[V:2] x12 :
[V:3] B4c8 | 
[V:4] G,4E,8 | 
[V:1] F4E2E3DCB, | 
[V:2] x12 :
[V:3] d4G4A4 | 
[V:4] D,4E,2C,3B,,A,,G,, | 
[V:1] D6^C=B,C4 | 
[V:2] x12 | 
[V:3] D4E8 | 
[V:4] B,,4A,,8 | 
[V:1] D8z4 | 
[V:2] z12 :
[V:3] D12 | 
[V:4] z4A,8 | 
[V:1] D6E2F2G2 | 
[V:2] x12 :
[V:3] z4D6E2 | 
[V:4] B,4A,6G,2 | 
[V:1] A2G2c6BA | 
[V:2] x12 :
[V:3] F2G2A2G2c4 | 
[V:4] F,2E,2F,2G,2A,4 | 
[V:1] B6A6 | 
[V:2] x12 | 
[V:3] d8c4 | 
[V:4] G,6D,2F,4 | 
[V:1] G6^F2F2EF | 
[V:2] z12 :
[V:3] B4A8 | 
[V:4] G,4D,8 | 
[V:1] G12 | 
[V:2] x12 :
[V:3] G6A2B4 | 
[V:4] E,6F,2G,4 | 
[V:1] z4G3AB4 | 
[V:2] g12- :
[V:3] c8G4 | 
[V:4] C,8z4 | 
[V:1] c4B6AB | 
[V:2] g4f8 | 
[V:3] c4d8 | 
[V:4] z12 | 
[V:1] c8z4 | 
[V:2] g8e4- :
[V:3] c12 | 
[V:4] C,12 | 
[V:1] G6E2G3A | 
[V:2] e12 :
[V:3] z12 | 
[V:4] C,4z2C,2E,3F, | 
[V:1] B8G4- | 
[V:2] d12- :
[V:3] B4G6A2 | 
[V:4] G,4B,6A,2 | 
[V:1] G2A2G2^FEF4 | 
[V:2] d12 | 
[V:3] B6AGA4 | 
[V:4] G,8D,4 | 
[V:1] G4D6C2 [I:setbarnb 92]| 
[V:2] z8z4 :
[V:3] G4z2B4A2 | 
[V:4] z4G,6A,2 | 
[V:1] A,4B,8 | 
[V:2] x4g8 :
[V:3] c2A2d8- | 
[V:4] F,4G,8 | 
[V:1] A,6B,2C4 | 
[V:2] a12- :
[V:3] d4c3BA4 | 
[V:4] D,4F,8- | 
[V:1] D4E6FG | 
[V:2] a4g8 | 
[V:3] z2F2G4c3B | 
[V:4] F,4E,8 | 
[V:1] A4D4E2G2- | 
[V:2] f8e4- :
[V:3] d2A2B4c2B2 | 
[V:4] D,8C,4- | 
[V:1] G2F2E2D2^C3=B, | 
[V:2] e12 :
[V:3] G6FGA4 | 
[V:4] C,8A,,4 | 
[V:1] D12 | 
[V:2] d12- :
[V:3] F4z2G4A2 | 
[V:4] B,,4G,,8 | 
[V:1] z12 | 
[V:2] d12 | 
[V:3] B6AGA4 | 
[V:4] G,6^F,E,F,4 | 
[V:1] D12- | 
[V:2] z8z4 :
[V:3] G4B8- | 
[V:4] G,12- | 
[V:1] D8G4- | 
[V:2] x4G8- :
[V:3] B8G4- | 
[V:4] G,4z4E,4- | 
[V:1] G2F2D4E4- | 
[V:2] G8c4- :
[V:3] G2A2B4G4 | 
[V:4] E,2F,2G,4C,4- | 
[V:1] E2F2G4A4 | 
[V:2] c12 | 
[V:3] c6B2A4 | 
[V:4] C,2D,2E,4F,4 | 
[V:1] D4G4F3G | 
[V:2] B8A4- :
[V:3] B4G4A2D2- | 
[V:4] G,8D,4 | 
[V:1] A6B2c4 | 
[V:2] A12 :
[V:3] DEF4G2A2F2 | 
[V:4] F,3E,D,4z4 | 
[V:1] B4G6F2 | 
[V:2] G12- :
[V:3] G6E4D2 | 
[V:4] G,,6C,4D,2 | 
[V:1] E4D6C2 | 
[V:2] G12 | 
[V:3] C4z4z4 | 
[V:4] E,2C,2G,6A,2 | 
[V:1] B,4A,8 | 
[V:2] z8z4 :
[V:3] G4D8 | 
[V:4] G,6^F,2F,2E,F, | 
[V:1] G,12 | 
[V:2] x4d8 :
[V:3] d8G4- | 
[V:4] G,4z4G,4 | 
[V:1] D12 | 
[V:2] G12- :
[V:3] G4B8 | 
[V:4] B,8D4- | 
[V:1] G,8D4- | 
[V:2] G12 | 
[V:3] d8B4- | 
[V:4] D4G,8- | 
[V:1] D2E2F2G2A4- | 
[V:2] d12- :
[V:3] B4A8 | 
[V:4] G,4D,6E,2 | 
[V:1] A4F6G2 | 
[V:2] d4d8 :
[V:3] D6F4E2 | 
[V:4] F,4B,,2D,4E,2 | 
[V:1] A4B2ABc4 | 
[V:2] d8c4- :
[V:3] D4z4F4 | 
[V:4] F,4G,4A,4 | 
[V:1] A6GFE4 | 
[V:2] c12 | 
[V:3] A6B2c4 | 
[V:4] F,6E,D,C,4 | 
[V:1] D4G2FGA4 | 
[V:2] B8A4- :
[V:3] d6e2f4- | 
[V:4] G,8F,4 | 
[V:1] F2A3G^FEF4 | 
[V:2] A12 :
[V:3] f2e2d3cd4 | 
[V:4] D,3C,D,8 | 
[V:1] G12- | 
[V:2] G12- :
[V:3] B4z2G2B3c | 
[V:4] G,,12- | 
[V:1] G12 |]  
[V:2] G12 |]  
[V:3] d12 |]  
[V:4] G,,12 |]  



